X:1
T:Title
L:1/8
M:4/4
K:C
V:1 treble nm="Grand Piano"
V:1
 z4 z2 G2 | E3 F G3 G | G2 F4 FE | D2 E2 F3 G | E6 GF | E2 F2 G3 B | B2 A4 A2 | G2 G2 ^F2 A2 | %8
 G6 C2 | A2 A2 F3 A | A2 G4 DE | F2 FE F3 G | E6 C2 | A2 A2 F3 A | A2 G4 DE | F2 D2 B,3 D | C6 C2 | %17
 A2 A2 A3 A | AB B4 GA | B2 B2 B3 d | c6 AB | c2 c2 c3 c | cd d4 Bc | d2 d2 c2 B2 | c6 z2 |] %25

